lamp-outline.svg

<svg fill="currentColor" viewBox="0 0 24 24"><path d="m14.56 4 2.67 8H6.78l2.66-8zM16 2H8L4 14h16zm-5 13h2v5h5v2H6v-2h5z"/></svg>

<svg  viewBox="0 0 24 24" fill="currentColor"><path  d="M14.56 4L17.23 12H6.78L9.44 4H14.56M16 2H8L4 14H20L16 2M11 15H13V20H18V22H6V20H11V15Z"/></svg>
